svg/u1f488.svg

<svg viewBox="0 0 128 128" xmlns="http://www.w3.org/2000/svg">
  <polygon points="43.22,32.72 44.02,95.57 85.79,95.3 84.99,30.43 " fill="#FFFFFF"/>
  <polygon points="42.68,37.74 52.82,31.88 76.26,32.45 42.55,55.55 " fill="#D80D1A"/>
  <polygon points="43.22,67.23 85.52,38.36 85.25,57.7 43.08,87.11 " fill="#1D86FA"/>
  <polygon points="49.93,95.3 85.39,70.19 84.85,88.72 71.55,98.26 " fill="#D80D1A"/>
  <polygon points="40.53,32.45 41.34,96.51 45.23,95.03 44.43,30.97 " fill="#A1D2D6"/>
  <polygon points="83.24,31.37 83.64,95.3 87.51,94.86 87,31.24 " fill="#A1D2D6"/>
  <path d="M40.05,33.09c0.64,0.71,45.97,0.16,46.76-0.24c0.79-0.4,4.81-3.73,4.5-9.05 c-0.31-5.25-3.94-6.91-3.94-6.91s-0.7-5.26-6.75-9.29c-4.29-2.86-9.85-3.69-16.83-3.63c-7.7,0.07-14.93,0.54-19.53,5.14 c-4.42,4.42-4.6,8.73-4.6,8.73s-3.91,1.2-3.91,7.08C35.74,30.72,40.05,33.09,40.05,33.09z" fill="#C8C8C8"/>
  <path d="M40.76,94.46c-0.66,0.55-0.79,3.97-0.79,3.97s-3.71,2-3.18,6.35c0.48,3.89,3.73,5.4,3.73,5.4 s1.52,6.58,6.59,10.16c5.4,3.81,10.72,3.97,18.34,3.97c8.26,0,13.89-0.64,18.34-4.84c5.1-4.83,5.48-9.84,5.48-9.84 s2.94-1.75,2.86-5.72c-0.08-3.97-3.33-5.48-3.33-5.48s-0.68-3.17-1.27-3.97c-0.3-0.41-12.16-0.3-23.82-0.24 C52.46,94.27,41.27,94.03,40.76,94.46z" fill="#C8C8C8"/>
  <path d="M61.57,120.42c-0.08,1.59,8.33,1.55,14.53,0.16c7.07-1.59,9.37-7.62,8.97-8.1 c-0.4-0.48-7.54-0.32-7.94,0.08c-0.4,0.4-2.22,4.13-5.32,5.4C68.71,119.23,61.63,119.21,61.57,120.42z" fill="#858585"/>
  <path d="M37.04,105.83l54.95-0.25c0,0-0.18,1.16-0.93,2.29c-0.73,1.09-1.78,1.75-1.78,1.75l-48.72,0.57 c0,0-1.46-0.79-2.09-1.57C37.08,106.9,37.04,105.83,37.04,105.83z" fill="#858585"/>
  <path d="M36.8,103.1l55.14-0.71c0,0-0.18-1.45-1.16-2.54c-0.82-0.92-1.98-1.43-1.98-1.43L39.26,98.9 c0,0-1,0.74-1.59,1.59C36.96,101.52,36.8,103.1,36.8,103.1z" fill="#E1E0E0"/>
  <path d="M35.94,22.86c0,0,11.02-2.16,27.14-2.4c16.12-0.24,27.73,0.71,27.73,0.71s-0.57-1.9-1.45-2.85 s-1.98-1.43-1.98-1.43s-15.11-0.55-24.25-0.63c-11.04-0.09-23.47,1.58-23.47,1.58s-1.33,0.38-2.23,1.55 C36.15,21.04,35.94,22.86,35.94,22.86z" fill="#E1E0E0"/>
  <path d="M35.76,25.96c0,0,8.58-1.68,27.71-1.92s27.83,1.15,27.83,1.15s0.08,1.16-0.3,2.27 c-0.42,1.24-1.08,2.06-1.08,2.06s-16.45-1.1-26.45-1.02s-26.32,1.66-26.32,1.66s-0.69-1.19-0.93-1.9 C35.99,27.52,35.76,25.96,35.76,25.96z" fill="#858585"/>
  <path d="M60.56,19.45c0,0.85-5.63,1.35-11.61,1.71c-3.35,0.2-9.26,1.85-9.26-0.36s2.14-2.63,9.4-2.78 S60.56,18.31,60.56,19.45z" fill="#FFFFFF"/>
  <path d="M60.99,6.28c0.19,0.54-2.85,1.57-5.2,4.06c-1.66,1.76-2.21,3.42-3.35,3.85s-7.26,1-7.34-0.28 c-0.1-1.78,1.18-4.6,4.2-6.27C54.08,4.99,60.63,5.28,60.99,6.28z" fill="#FFFFFF"/>
</svg>

<svg viewBox="0 0 128 128" xmlns="http://www.w3.org/2000/svg">
  <defs/>
  <path d="M43.22,32.72 L44.02,95.57 L85.79,95.3 L84.99,30.43 Z" fill="#FFFFFF"/>
  <path d="M42.68,37.74 L52.82,31.88 L76.26,32.45 L42.55,55.55 Z" fill="#D80D1A"/>
  <path d="M43.22,67.23 L85.52,38.36 L85.25,57.7 L43.08,87.11 Z" fill="#1D86FA"/>
  <path d="M49.93,95.3 L85.39,70.19 L84.85,88.72 L71.55,98.26 Z" fill="#D80D1A"/>
  <path d="M40.53,32.45 L41.34,96.51 L45.23,95.03 L44.43,30.97 Z" fill="#A1D2D6"/>
  <path d="M83.24,31.37 L83.64,95.3 L87.51,94.86 L87,31.24 Z" fill="#A1D2D6"/>
  <path d="M40.05,33.09 C40.69,33.8 86.02,33.25 86.81,32.85 C87.6,32.45 91.62,29.12 91.31,23.8 C91,18.55 87.37,16.89 87.37,16.89 C87.37,16.89 86.67,11.63 80.62,7.6 C76.33,4.74 70.77,3.91 63.79,3.97 C56.09,4.04 48.86,4.51 44.26,9.11 C39.84,13.53 39.66,17.84 39.66,17.84 C39.66,17.84 35.75,19.04 35.75,24.92 C35.74,30.72 40.05,33.09 40.05,33.09 Z" fill="#C8C8C8"/>
  <path d="M40.76,94.46 C40.1,95.01 39.97,98.43 39.97,98.43 C39.97,98.43 36.26,100.43 36.79,104.78 C37.27,108.67 40.52,110.18 40.52,110.18 C40.52,110.18 42.04,116.76 47.11,120.34 C52.51,124.15 57.83,124.31 65.45,124.31 C73.71,124.31 79.34,123.67 83.79,119.47 C88.89,114.64 89.27,109.63 89.27,109.63 C89.27,109.63 92.21,107.88 92.13,103.91 C92.05,99.94 88.8,98.43 88.8,98.43 C88.8,98.43 88.12,95.26 87.53,94.46 C87.23,94.05 75.37,94.16 63.71,94.22 C52.46,94.27 41.27,94.03 40.76,94.46 Z" fill="#C8C8C8"/>
  <path d="M61.57,120.42 C61.49,122.01 69.9,121.97 76.1,120.58 C83.17,118.99 85.47,112.96 85.07,112.48 C84.67,112 77.53,112.16 77.13,112.56 C76.73,112.96 74.91,116.69 71.81,117.96 C68.71,119.23 61.63,119.21 61.57,120.42 Z" fill="#858585"/>
  <path d="M37.04,105.83 L91.99,105.58 C91.99,105.58 91.81,106.74 91.06,107.87 C90.33,108.96 89.28,109.62 89.28,109.62 L40.56,110.19 C40.56,110.19 39.1,109.4 38.47,108.62 C37.08,106.9 37.04,105.83 37.04,105.83 Z" fill="#858585"/>
  <path d="M36.8,103.1 L91.94,102.39 C91.94,102.39 91.76,100.94 90.78,99.85 C89.96,98.93 88.8,98.42 88.8,98.42 L39.26,98.9 C39.26,98.9 38.26,99.64 37.67,100.49 C36.96,101.52 36.8,103.1 36.8,103.1 Z" fill="#E1E0E0"/>
  <path d="M35.94,22.86 C35.94,22.86 46.96,20.7 63.08,20.46 C79.2,20.22 90.81,21.17 90.81,21.17 C90.81,21.17 90.24,19.27 89.36,18.32 C88.48,17.37 87.38,16.89 87.38,16.89 C87.38,16.89 72.27,16.34 63.13,16.26 C52.09,16.17 39.66,17.84 39.66,17.84 C39.66,17.84 38.33,18.22 37.43,19.39 C36.15,21.04 35.94,22.86 35.94,22.86 Z" fill="#E1E0E0"/>
  <path d="M35.76,25.96 C35.76,25.96 44.34,24.28 63.47,24.04 C82.6,23.8 91.3,25.19 91.3,25.19 C91.3,25.19 91.38,26.35 91,27.46 C90.58,28.7 89.92,29.52 89.92,29.52 C89.92,29.52 73.47,28.42 63.47,28.5 C53.47,28.58 37.15,30.16 37.15,30.16 C37.15,30.16 36.46,28.97 36.22,28.26 C35.99,27.52 35.76,25.96 35.76,25.96 Z" fill="#858585"/>
  <path d="M60.56,19.45 C60.56,20.3 54.93,20.8 48.95,21.16 C45.6,21.36 39.69,23.01 39.69,20.8 C39.69,18.59 41.83,18.17 49.09,18.02 C56.35,17.87 60.56,18.31 60.56,19.45 Z" fill="#FFFFFF"/>
  <path d="M60.99,6.28 C61.18,6.82 58.14,7.85 55.79,10.34 C54.13,12.1 53.58,13.76 52.44,14.19 C51.3,14.62 45.18,15.19 45.1,13.91 C45,12.13 46.28,9.31 49.3,7.64 C54.08,4.99 60.63,5.28 60.99,6.28 Z" fill="#FFFFFF"/>
</svg>
